16x16/apps/com.vinszent.GnomeTwitch.svg

<svg xmlns="http://www.w3.org/2000/svg" width="16" height="16" version="1">
 <rect fill="#7b5ab7" width="16" height="16" x="0" y="0" rx=".857" ry=".857"/>
 <path fill="#fff" fill-rule="evenodd" d="m3.5 2-0.5 2v8h2v1h1l1-1h2l3-3v-7zm0.5 1h7v5.5l-1.5 1.5h-2l-1.5 1v-1h-2zm2 1v3h1v-3zm3 0v3h1v-3z"/>
</svg>

<svg xmlns="http://www.w3.org/2000/svg" width="16" height="16" version="1"><rect fill="#7b5ab7" width="16" height="16" rx=".857" ry=".857"/><path fill="#fff" fill-rule="evenodd" d="M3.5 2 3 4v8h2v1h1l1-1h2l3-3V2zM4 3h7v5.5L9.5 10h-2L6 11v-1H4zm2 1v3h1V4zm3 0v3h1V4z"/></svg>
